X:1
T:To my just plea and sad complaint
T:Joseph Stephenson
T:Text: Tate/Brady on Ps 17.
T:This edition by Edmund Gooch released into the public domain, March 2013.
T:To my just plea and sad complaint
T:Ps. 17th. (A 4 Voce.)
C:Joseph Stephenson
Z:Text: Tate/Brady on Ps 17.
%%score [ 1 2 3 4 ]
L:1/8
M:3/2
K:C
V:1 treble nm="SOPRANO" snm="S."
V:2 treble nm="ALTO" snm="A."
V:3 treble-8 transpose=-12 nm="TENOR" snm="T."
V:4 bass nm="BASS" snm="B."
V:1
 A4 | (c6 B2) A4 | ^G8 A4 | (B4 A4) ^G4 | A8 c4 | B8 (B3 c) | d8 B4 | c8 c4 | (c4 d4) c4 | B8 c4 | %10
w: For|thou _ hast|search’d my|heart _ by|day, And|vi- si- *|ted by|night; And|on _ the|strict- est|
w: To|my _ just|plea and|sad _ com-|plaint, At-|tend, O _|gra- cious|Lord, And|to _ my|pray’r, as|
w: As|in _ thy|sight I|am _ ap-|prov’d, So|let my _|sen- tence|be; And|with _ im-|par- tial|
 (c4 B4) A4 | ^G8 c4 | (e4 d4) c4 | (B4 A4) ^G4 | A8 |] %15
w: tri- * al|found Its|se- * cret|mo- * tions|right.|
w: ’tis _ un-|feign’d, A|gra- * cious|ear _ af-|ford.|
w: eyes, _ O|Lord, My|up- * right|deal- * ing|see.|
V:2
 E4 | E8 E4 | E8 A4 | F4 E8 | E8 E4 | G8 G4 | (G4 A4) G4 | G8 E4 | G8 (G2 A2) | B8 A4 | E8 E4 | %11
w: For|thou hast|search’d my|heart by|day, And|vi- si-|ted _ by|night; And|on the _|strict- est|tri- al|
w: To|my just|plea and|sad com-|plaint, At-|tend, O|gra- * cious|Lord, And|to my _|pray’r, as|’tis un-|
w: As|in thy|sight I|am ap-|prov’d, So|let my|sen- * tence|be; And|with im- *|par- tial|eyes, O|
 E8 E4 | G8 A4 | F4 E8 | E8 |] %15
w: found Its|se- cret|mo- tions|right.|
w: feign’d, A|gra- cious|ear af-|ford.|
w: Lord, My|up- right|deal- ing|see.|
V:3
 E4 | (A6 B2) c4 | B8 e4 | (d4 c4) B4 | A8 A4 | e8 (d3 c) | (B4 c4) d4 | e8 e4 | (e4 d4) (e2 f2) | %9
w: For|thou _ hast|search’d my|heart _ by|day, And|vi- si- *|ted _ by|night; And|on _ the _|
w: To|my _ just|plea and|sad _ com-|plaint, At-|tend, O _|gra- * cious|Lord, And|to _ my _|
w: As|in _ thy|sight I|am _ ap-|prov’d, So|let my _|sen- * tence|be; And|with _ im- *|
 g8 f4 | (e4 d4) c4 | B8 e4 | (c4 d4) e4 | (d4 c4) B4 | A8 |] %15
w: strict- est|tri- * al|found Its|se- * cret|mo- * tions|right.|
w: pray’r, as|’tis _ un-|feign’d, A|gra- * cious|ear _ af-|ford.|
w: par- tial|eyes, _ O|Lord, My|up- * right|deal- * ing|see.|
V:4
 A,,4 | A,,8 A,4 | E,8 C,4 | D,4 E,8 | A,,8 A,4 | E,8 G,4 | (G,4 ^F,4) G,4 | C,8 C4 | %8
w: For|thou hast|search’d my|heart by|day, And|vi- si-|ted _ by|night; And|
w: To|my just|plea and|sad com-|plaint, At-|tend, O|gra- * cious|Lord, And|
w: As|in thy|sight I|am ap-|prov’d, So|let my|sen- * tence|be; And|
"^Notes:The alto part is notated in the alto clef in the source.The opening words of the first verse are given in the source, as ‘To my just plea &c.’, with the title 'Ps. 17th' alsoindicating the text, four stanzas of which have been underlaid editorially." (C4 B,4) C4 | %9
w: on _ the|
w: to _ my|
w: with _ im-|
 G,8 A,4 | (A,4 ^G,4) A,4 | E,8 C,4 | (C4 B,4) A,4 | D,4 E,8 | A,,8 |] %15
w: strict- est|tri- * al|found Its|se- * cret|mo- tions|right.|
w: pray’r, as|’tis _ un-|feign’d, A|gra- * cious|ear af-|ford.|
w: par- tial|eyes, _ O|Lord, My|up- * right|deal- ing|see.|

